img/icon_facebook.svg

<?xml version="1.0" encoding="UTF-8"?>
<svg width="8px" height="17px" viewBox="0 0 8 17" version="1.1" xmlns="http://www.w3.org/2000/svg" xmlns:xlink="http://www.w3.org/1999/xlink">
    <!-- Generator: Sketch 63.1 (92452) - https://sketch.com -->
    <title>icon_facebook</title>
    <desc>Created with Sketch.</desc>
    <g id="GIFOS" stroke="none" stroke-width="1" fill="none" fill-rule="evenodd">
        <g id="00-UI-Kit" transform="translate(-1027.000000, -2780.000000)">
            <g id="icon_facebook" transform="translate(1018.000000, 2778.000000)">
                <g></g>
                <path d="M10.715503,19 L10.715503,10.4988913 L9,10.4988913 L9,7.56971739 L10.715503,7.56971739 L10.715503,5.81095652 C10.715503,3.42171739 11.6832226,2 14.4354173,2 L16.7259217,2 L16.7259217,4.93028261 L15.2944004,4.93028261 C14.2232227,4.93028261 14.1521393,5.3393913 14.1521393,6.10365217 L14.1475647,7.56971739 L16.7417571,7.56971739 L16.4380691,10.4988913 L14.1475647,10.4988913 L14.1475647,19 L10.715503,19 Z" id="Clip-4" fill="#CDD6E0"></path>
                <rect id="Rectangle" x="0" y="0" width="20" height="20"></rect>
            </g>
        </g>
    </g>
</svg>

<?xml version="1.0" encoding="utf-8"?>
<!-- Generator: Adobe Illustrator 16.0.0, SVG Export Plug-In . SVG Version: 6.00 Build 0)  -->
<!DOCTYPE svg PUBLIC "-//W3C//DTD SVG 1.1//EN" "http://www.w3.org/Graphics/SVG/1.1/DTD/svg11.dtd">
<svg version="1.1" id="Capa_1" xmlns="http://www.w3.org/2000/svg" xmlns:xlink="http://www.w3.org/1999/xlink" x="0px" y="0px"
	 width="8px" height="17px" viewBox="0 0 8 17" enable-background="new 0 0 8 17" xml:space="preserve">
<title>icon_facebook</title>
<desc>Created with Sketch.</desc>
<g id="GIFOS">
	<g id="_x30_0-UI-Kit" transform="translate(-1027.000000, -2780.000000)">
		<g id="icon_facebook" transform="translate(1018.000000, 2778.000000)">
			<path id="Clip-4" fill="#CDD6E0" d="M10.715,19v-8.501H9V7.57h1.715V5.811c0-2.389,0.968-3.811,3.72-3.811h2.291v2.93h-1.432
				c-1.072,0-1.143,0.409-1.143,1.173L14.147,7.57h2.595l-0.305,2.929h-2.29V19H10.715z"/>
			<rect id="Rectangle" fill="none" width="20" height="20"/>
		</g>
	</g>
</g>
</svg>
